src/xmb/monochrome/menu_apply_cog.svg

<?xml version="1.0" encoding="UTF-8" standalone="no"?>
<!-- Generator: Adobe Illustrator 16.0.0, SVG Export Plug-In . SVG Version: 6.00 Build 0)  -->

<svg
   xmlns:dc="http://purl.org/dc/elements/1.1/"
   xmlns:cc="http://creativecommons.org/ns#"
   xmlns:rdf="http://www.w3.org/1999/02/22-rdf-syntax-ns#"
   xmlns:svg="http://www.w3.org/2000/svg"
   xmlns="http://www.w3.org/2000/svg"
   xmlns:sodipodi="http://sodipodi.sourceforge.net/DTD/sodipodi-0.dtd"
   xmlns:inkscape="http://www.inkscape.org/namespaces/inkscape"
   version="1.1"
   id="Calque_1"
   x="0px"
   y="0px"
   width="64px"
   height="64px"
   viewBox="0 0 64 64"
   enable-background="new 0 0 64 64"
   xml:space="preserve"
   sodipodi:docname="menu_apply_cog.svg"
   inkscape:export-filename="/home/familia/Escritorio/load_apply.png"
   inkscape:export-xdpi="192"
   inkscape:export-ydpi="192"
   inkscape:version="0.92.3 (2405546, 2018-03-11)"><metadata
   id="metadata8"><rdf:RDF><cc:Work
       rdf:about=""><dc:format>image/svg+xml</dc:format><dc:type
         rdf:resource="http://purl.org/dc/dcmitype/StillImage" /><dc:title /></cc:Work></rdf:RDF></metadata><defs
   id="defs6" /><sodipodi:namedview
   pagecolor="#808080"
   bordercolor="#666666"
   borderopacity="1"
   objecttolerance="10"
   gridtolerance="10"
   guidetolerance="10"
   inkscape:pageopacity="0"
   inkscape:pageshadow="2"
   inkscape:window-width="1024"
   inkscape:window-height="697"
   id="namedview4"
   showgrid="true"
   inkscape:zoom="7.375"
   inkscape:cx="26.823761"
   inkscape:cy="34.783284"
   inkscape:window-x="0"
   inkscape:window-y="0"
   inkscape:window-maximized="1"
   inkscape:current-layer="Calque_1"><inkscape:grid
     type="xygrid"
     id="grid815" /></sodipodi:namedview>

<path
   inkscape:connector-curvature="0"
   style="fill:#ffffff;stroke-width:1.57506132"
   d="m 32,14.5 c -1.2758,0 -2.515912,0.138173 -3.718211,0.397183 l -0.294299,3.414344 c -2.213838,0.647522 -4.205127,1.82137 -5.83094,3.373667 L 18.000479,19.749522 C 16.334414,21.583589 15.270029,24.335395 14.5,26.750479 l 3.641647,1.878247 C 17.880885,29.708508 17.737286,30.837945 17.737286,32 c 0,1.162057 0.143605,2.289742 0.404362,3.371274 l -3.641647,1.878247 c 0.770029,2.415083 1.834413,5.16689 3.500478,7.000959 L 22.15655,42.3172 c 1.625814,1.552308 3.617103,2.72375 5.83094,3.371275 l 0.294299,3.414342 C 29.484089,49.360065 30.7242,49.5 32,49.5 c 1.275802,0 2.517018,-0.138172 3.715817,-0.397183 l 0.294302,-3.414342 c 2.217335,-0.647523 4.207518,-1.821372 5.83333,-3.373665 l 4.156072,1.93567 C 47.663833,42.416412 48.731719,39.664605 49.5,37.249522 L 45.858355,35.371274 C 46.122615,34.289742 46.265107,33.162057 46.265107,32 c 0,-1.162056 -0.142493,-2.291492 -0.406752,-3.371274 L 49.5,26.750479 c -0.768281,-2.415084 -1.836165,-5.16689 -3.500479,-7.000957 L 41.84345,21.6828 C 40.217637,20.130492 38.227452,18.959049 36.010119,18.311527 L 35.715818,14.897183 C 34.517018,14.639936 33.275802,14.5 32,14.5 Z m 7.381393,10.298059 c 0.863357,-0.02176 1.34612,0.987786 0.787189,1.646158 L 29.358491,39.14691 c -0.379679,0.445847 -1.059573,0.471273 -1.471493,0.05502 l -4.175211,-4.235032 c -0.738976,-0.745676 0.02419,-1.980691 1.02167,-1.653334 l 3.622506,1.181981 10.379408,-9.439092 c 0.177445,-0.160722 0.406685,-0.252418 0.646023,-0.258407 z m -11.360407,11.692987 0.523996,0.528781 0.385222,-0.452217 c -0.206896,0.07352 -0.432245,0.07688 -0.641238,0.0096 z"
   id="Subsetting"
   sodipodi:nodetypes="sccccccsccccccsccccccsccccccscccccccccccccc" /></svg>

<svg xmlns="http://www.w3.org/2000/svg" xml:space="preserve" width="64" height="64"><path d="M32 14.5c-1.276 0-2.516.138-3.718.397l-.295 3.415a14.24 14.24 0 0 0-5.83 3.373L18 19.75c-1.666 1.834-2.73 4.585-3.5 7l3.642 1.879A14.4 14.4 0 0 0 17.737 32c0 1.162.144 2.29.405 3.371L14.5 37.25c.77 2.415 1.834 5.166 3.5 7l4.157-1.933a14.2 14.2 0 0 0 5.83 3.371l.295 3.415a17.6 17.6 0 0 0 7.434 0l.294-3.415a14.2 14.2 0 0 0 5.833-3.373L46 44.25c1.664-1.834 2.732-4.585 3.5-7l-3.642-1.879a14.2 14.2 0 0 0 0-6.742L49.5 26.75c-.768-2.415-1.836-5.166-3.5-7l-4.157 1.933a14.2 14.2 0 0 0-5.833-3.371l-.294-3.415A17.7 17.7 0 0 0 32 14.5m7.381 10.298c.864-.022 1.347.988.788 1.646l-10.81 12.703a1 1 0 0 1-1.472.055l-4.175-4.235c-.74-.746.024-1.98 1.021-1.653l3.623 1.182 10.38-9.44a1 1 0 0 1 .645-.258m-11.36 11.693.524.529.385-.452a1 1 0 0 1-.641.01z" style="fill:#fff;stroke-width:1.57506132"/></svg>
